X:6
T:6. The Shaddle
M:6/8
L:1/8
Q:3/8=120
Z:Peter Dunk, VMP, 2011
K:Edor
A | f2 e dcB | A2 F D2 E | F>GF {G/}FED | CEE E2 A | f2 e dcB | A2 F D2 E | FGF {F/}EDE |  D3- HD2 :|!
B/c/ | g2 e f2 d | c2 A d2 f | g2 e f2 d | cee e2 A | gfe fed | cBA def | gfe fed | (f3e2) !D.C.! :|!

